src/assets/icons/carouselBusinessTrade.svg

<svg width="60" height="60" viewBox="0 0 60 60" fill="none" xmlns="http://www.w3.org/2000/svg">
<g clip-path="url(#clip0)">
<path d="M35 22.7251L57.025 27.1001C58.8 27.4751 60 28.9751 60 30.7501V56.2501C60 58.3251 58.325 60.0001 56.25 60.0001H33.75C34.45 60.0001 35 59.4501 35 58.7501V57.5001H56.25C56.925 57.5001 57.5 56.9501 57.5 56.2501V30.7501C57.5 30.1751 57.1 29.6501 56.525 29.5251L35 25.2751V22.7251Z" fill="white"/>
<path d="M48.75 35C49.45 35 50 35.55 50 36.25C50 36.95 49.45 37.5 48.75 37.5H43.75C43.05 37.5 42.5 36.95 42.5 36.25C42.5 35.55 43.05 35 43.75 35H48.75Z" fill="white"/>
<path d="M48.75 42.5C49.45 42.5 50 43.05 50 43.75C50 44.45 49.45 45 48.75 45H43.75C43.05 45 42.5 44.45 42.5 43.75C42.5 43.05 43.05 42.5 43.75 42.5H48.75Z" fill="white"/>
<path d="M48.75 50C49.45 50 50 50.55 50 51.25C50 51.95 49.45 52.5 48.75 52.5H43.75C43.05 52.5 42.5 51.95 42.5 51.25C42.5 50.55 43.05 50 43.75 50H48.75Z" fill="white"/>
<path d="M35 58.7501C35 59.4501 34.45 60.0001 33.75 60.0001C33.05 60.0001 32.5 59.4501 32.5 58.7501V57.5001V23.7501C32.5 23.3751 32.675 23.0251 32.95 22.7751C33.25 22.5501 33.625 22.4501 34 22.5251L35 22.7251V25.2751V57.5001V58.7501Z" fill="white"/>
<path d="M32.5 57.5V58.75C32.5 59.45 33.05 60 33.75 60H23.75C24.45 60 25 59.45 25 58.75V57.5H32.5Z" fill="white"/>
<path d="M26.25 12.5C26.95 12.5 27.5 13.05 27.5 13.75C27.5 14.45 26.95 15 26.25 15H21.25C20.55 15 20 14.45 20 13.75C20 13.05 20.55 12.5 21.25 12.5H26.25Z" fill="white"/>
<path d="M27.5 21.25C27.5 21.95 26.95 22.5 26.25 22.5H21.25C20.55 22.5 20 21.95 20 21.25C20 20.55 20.55 20 21.25 20H26.25C26.95 20 27.5 20.55 27.5 21.25Z" fill="white"/>
<path d="M26.25 27.5C26.95 27.5 27.5 28.05 27.5 28.75C27.5 29.45 26.95 30 26.25 30H21.25C20.55 30 20 29.45 20 28.75C20 28.05 20.55 27.5 21.25 27.5H26.25Z" fill="white"/>
<path d="M26.25 35C26.95 35 27.5 35.55 27.5 36.25C27.5 36.95 26.95 37.5 26.25 37.5H21.25C20.55 37.5 20 36.95 20 36.25C20 35.55 20.55 35 21.25 35H26.25Z" fill="white"/>
<path d="M15 36.25C15 36.95 14.45 37.5 13.75 37.5H8.75C8.05 37.5 7.5 36.95 7.5 36.25C7.5 35.55 8.05 35 8.75 35H13.75C14.45 35 15 35.55 15 36.25Z" fill="white"/>
<path d="M13.75 12.5C14.45 12.5 15 13.05 15 13.75C15 14.45 14.45 15 13.75 15H8.75C8.05 15 7.5 14.45 7.5 13.75C7.5 13.05 8.05 12.5 8.75 12.5H13.75Z" fill="white"/>
<path d="M13.75 20C14.45 20 15 20.55 15 21.25C15 21.95 14.45 22.5 13.75 22.5H8.75C8.05 22.5 7.5 21.95 7.5 21.25C7.5 20.55 8.05 20 8.75 20H13.75Z" fill="white"/>
<path d="M13.75 27.5C14.45 27.5 15 28.05 15 28.75C15 29.45 14.45 30 13.75 30H8.75C8.05 30 7.5 29.45 7.5 28.75C7.5 28.05 8.05 27.5 8.75 27.5H13.75Z" fill="white"/>
<path d="M22.5 46.25C22.5 45.55 21.925 45 21.25 45H13.75C13.05 45 12.5 45.55 12.5 46.25V57.5H10V46.25C10 44.175 11.675 42.5 13.75 42.5H21.25C23.325 42.5 25 44.175 25 46.25V57.5H22.5V46.25Z" fill="white"/>
<path d="M12.5 57.5H22.5H25V58.75C25 59.45 24.45 60 23.75 60H11.25C10.55 60 10 59.45 10 58.75V57.5H12.5Z" fill="white"/>
<path d="M4.375 0.500088L31.85 4.67509C33.675 4.97509 35 6.52509 35 8.37509V22.7251L34 22.5251C33.625 22.4501 33.25 22.5501 32.95 22.7751C32.675 23.0251 32.5 23.3751 32.5 23.7501V8.37509C32.5 7.75009 32.05 7.22509 31.45 7.12509L3.975 2.97509C3.9 2.95009 3.825 2.95009 3.75 2.95009C3.45 2.95009 3.175 3.05009 2.95 3.25009C2.65 3.50009 2.5 3.82509 2.5 4.20009V56.2501C2.5 56.9501 3.075 57.5001 3.75 57.5001H10V58.7501C10 59.4501 10.55 60.0001 11.25 60.0001H3.75C1.675 60.0001 0 58.3251 0 56.2501V4.20009C0 3.10009 0.475 2.05009 1.325 1.35009C2.175 0.625089 3.275 0.325088 4.375 0.500088Z" fill="white"/>
</g>
<defs>
<clipPath id="clip0">
<rect width="60" height="60" fill="white"/>
</clipPath>
</defs>
</svg>

<svg xmlns="http://www.w3.org/2000/svg" width="60" height="60" fill="none"><g fill="#fff" clip-path="url(#a)"><path d="M35 22.725 57.025 27.1C58.8 27.475 60 28.975 60 30.75v25.5A3.745 3.745 0 0 1 56.25 60h-22.5c.7 0 1.25-.55 1.25-1.25V57.5h21.25c.675 0 1.25-.55 1.25-1.25v-25.5c0-.575-.4-1.1-.975-1.225L35 25.275v-2.55Z"/><path d="M48.75 35c.7 0 1.25.55 1.25 1.25s-.55 1.25-1.25 1.25h-5c-.7 0-1.25-.55-1.25-1.25S43.05 35 43.75 35h5ZM48.75 42.5c.7 0 1.25.55 1.25 1.25S49.45 45 48.75 45h-5c-.7 0-1.25-.55-1.25-1.25s.55-1.25 1.25-1.25h5ZM48.75 50c.7 0 1.25.55 1.25 1.25s-.55 1.25-1.25 1.25h-5c-.7 0-1.25-.55-1.25-1.25S43.05 50 43.75 50h5ZM35 58.75c0 .7-.55 1.25-1.25 1.25s-1.25-.55-1.25-1.25v-35c0-.375.175-.725.45-.975.3-.225.675-.325 1.05-.25l1 .2V58.75Z"/><path d="M32.5 57.5v1.25c0 .7.55 1.25 1.25 1.25h-10c.7 0 1.25-.55 1.25-1.25V57.5h7.5ZM26.25 12.5c.7 0 1.25.55 1.25 1.25S26.95 15 26.25 15h-5c-.7 0-1.25-.55-1.25-1.25s.55-1.25 1.25-1.25h5ZM27.5 21.25c0 .7-.55 1.25-1.25 1.25h-5c-.7 0-1.25-.55-1.25-1.25S20.55 20 21.25 20h5c.7 0 1.25.55 1.25 1.25ZM26.25 27.5c.7 0 1.25.55 1.25 1.25S26.95 30 26.25 30h-5c-.7 0-1.25-.55-1.25-1.25s.55-1.25 1.25-1.25h5ZM26.25 35c.7 0 1.25.55 1.25 1.25s-.55 1.25-1.25 1.25h-5c-.7 0-1.25-.55-1.25-1.25S20.55 35 21.25 35h5ZM15 36.25c0 .7-.55 1.25-1.25 1.25h-5c-.7 0-1.25-.55-1.25-1.25S8.05 35 8.75 35h5c.7 0 1.25.55 1.25 1.25ZM13.75 12.5c.7 0 1.25.55 1.25 1.25S14.45 15 13.75 15h-5c-.7 0-1.25-.55-1.25-1.25s.55-1.25 1.25-1.25h5ZM13.75 20c.7 0 1.25.55 1.25 1.25s-.55 1.25-1.25 1.25h-5c-.7 0-1.25-.55-1.25-1.25S8.05 20 8.75 20h5ZM13.75 27.5c.7 0 1.25.55 1.25 1.25S14.45 30 13.75 30h-5c-.7 0-1.25-.55-1.25-1.25s.55-1.25 1.25-1.25h5ZM22.5 46.25c0-.7-.575-1.25-1.25-1.25h-7.5c-.7 0-1.25.55-1.25 1.25V57.5H10V46.25a3.745 3.745 0 0 1 3.75-3.75h7.5A3.745 3.745 0 0 1 25 46.25V57.5h-2.5V46.25Z"/><path d="M12.5 57.5H25v1.25c0 .7-.55 1.25-1.25 1.25h-12.5c-.7 0-1.25-.55-1.25-1.25V57.5h2.5Z"/><path d="M4.375.5 31.85 4.675c1.825.3 3.15 1.85 3.15 3.7v14.35l-1-.2a1.314 1.314 0 0 0-1.05.25c-.275.25-.45.6-.45.975V8.375c0-.625-.45-1.15-1.05-1.25L3.975 2.975c-.075-.025-.15-.025-.225-.025-.3 0-.575.1-.8.3-.3.25-.45.575-.45.95v52.05c0 .7.575 1.25 1.25 1.25H10v1.25c0 .7.55 1.25 1.25 1.25h-7.5A3.745 3.745 0 0 1 0 56.25V4.2c0-1.1.475-2.15 1.325-2.85A3.753 3.753 0 0 1 4.375.5Z"/></g><defs><clipPath id="a"><path fill="#fff" d="M0 0h60v60H0z"/></clipPath></defs></svg>
